svg/business/shopping_cart_2_line.svg

<?xml version="1.0" encoding="UTF-8"?>
<svg width="24px" height="24px" viewBox="0 0 24 24" version="1.1" xmlns="http://www.w3.org/2000/svg" xmlns:xlink="http://www.w3.org/1999/xlink">
    <title>shopping_cart_2_line</title>
    <g id="页面-1" stroke="none" stroke-width="1" fill="none" fill-rule="evenodd">
        <g id="Business" transform="translate(-1056.000000, 0.000000)" fill-rule="nonzero">
            <g id="shopping_cart_2_line" transform="translate(1056.000000, 0.000000)">
                <path d="M24,0 L24,24 L0,24 L0,0 L24,0 Z M12.5934901,23.257841 L12.5819402,23.2595131 L12.5108777,23.2950439 L12.4918791,23.2987469 L12.4918791,23.2987469 L12.4767152,23.2950439 L12.4056548,23.2595131 C12.3958229,23.2563662 12.3870493,23.2590235 12.3821421,23.2649074 L12.3780323,23.275831 L12.360941,23.7031097 L12.3658947,23.7234994 L12.3769048,23.7357139 L12.4804777,23.8096931 L12.4953491,23.8136134 L12.4953491,23.8136134 L12.5071152,23.8096931 L12.6106902,23.7357139 L12.6232938,23.7196733 L12.6232938,23.7196733 L12.6266527,23.7031097 L12.609561,23.275831 C12.6075724,23.2657013 12.6010112,23.2592993 12.5934901,23.257841 L12.5934901,23.257841 Z M12.8583906,23.1452862 L12.8445485,23.1473072 L12.6598443,23.2396597 L12.6498822,23.2499052 L12.6498822,23.2499052 L12.6471943,23.2611114 L12.6650943,23.6906389 L12.6699349,23.7034178 L12.6699349,23.7034178 L12.678386,23.7104931 L12.8793402,23.8032389 C12.8914285,23.8068999 12.9022333,23.8029875 12.9078286,23.7952264 L12.9118235,23.7811639 L12.8776777,23.1665331 C12.8752882,23.1545897 12.8674102,23.1470016 12.8583906,23.1452862 L12.8583906,23.1452862 Z M12.1430473,23.1473072 C12.1332178,23.1423925 12.1221763,23.1452606 12.1156365,23.1525954 L12.1099173,23.1665331 L12.0757714,23.7811639 C12.0751323,23.7926639 12.0828099,23.8018602 12.0926481,23.8045676 L12.108256,23.8032389 L12.3092106,23.7104931 L12.3186497,23.7024347 L12.3186497,23.7024347 L12.3225043,23.6906389 L12.340401,23.2611114 L12.337245,23.2485176 L12.337245,23.2485176 L12.3277531,23.2396597 L12.1430473,23.1473072 Z" id="MingCute" fill-rule="nonzero"></path>
                <path d="M9,20 C9.55228,20 10,20.4477 10,21 C10,21.5523 9.55228,22 9,22 C8.44772,22 8,21.5523 8,21 C8,20.4477 8.44772,20 9,20 Z M16,20 C16.5523,20 17,20.4477 17,21 C17,21.5523 16.5523,22 16,22 C15.4477,22 15,21.5523 15,21 C15,20.4477 15.4477,20 16,20 Z M3.4950344,2.63103054 L3.60006,2.70006 L5.30781,3.98087 C5.60023286,4.20018714 5.82529163,4.4941198 5.96118481,4.82919165 L6.0216,5.00000086 L18.8672,5.00000086 C20.020075,5.00000086 20.9229608,5.96832722 20.8648834,7.09964823 L20.8518,7.24807 L20.3948,10.9035 C20.1110581,13.1740161 18.3255992,14.9517331 16.0752465,15.2420619 L15.8487,15.2661 L8.53605,15.8755 L8.79557,17.0001 L17.5001,17.0001 C18.0523,17.0001 18.5001,17.4478 18.5001,18.0001 C18.5001,18.5128571 18.1139867,18.9355959 17.6167055,18.9933711 L17.5001,19.0001 L8.79557,19.0001 C7.91904294,19.0001 7.15169235,18.4306107 6.8898623,17.6071067 L6.84679,17.4498 L4.10781,5.58087 L2.40006,4.30006 C1.95823,3.96869 1.86869,3.34189 2.20006,2.90006 C2.48045,2.52620385 2.97236089,2.40457899 3.38475379,2.57675723 L3.4950344,2.63103054 Z M18.8672,7 L6.48787,7 L8.08165,13.9064 L15.6826,13.273 C17.0964,13.1552 18.2343,12.0632 18.4103,10.6555 L18.8672,7 Z" id="形状" fill="#09244B"></path>
            </g>
        </g>
    </g>
</svg>

<svg xmlns="http://www.w3.org/2000/svg" width="24" height="24"><g fill="none" fill-rule="nonzero"><path d="M24 0v24H0V0zM12.593 23.258l-.011.002-.071.035-.02.004-.014-.004-.071-.035c-.01-.004-.019-.001-.024.005l-.004.01-.017.428.005.02.01.013.104.074.015.004.012-.004.104-.074.012-.016.004-.017-.017-.427c-.002-.01-.009-.017-.017-.018m.265-.113-.013.002-.185.093-.01.01-.003.011.018.43.005.012.008.007.201.093c.012.004.023 0 .029-.008l.004-.014-.034-.614c-.003-.012-.01-.02-.02-.022m-.715.002a.023.023 0 0 0-.027.006l-.006.014-.034.614c0 .012.007.02.017.024l.015-.002.201-.093.01-.008.004-.011.017-.43-.003-.012-.01-.01z"/><path fill="#09244B" d="M9 20a1 1 0 1 1 0 2 1 1 0 0 1 0-2m7 0a1 1 0 1 1 0 2 1 1 0 0 1 0-2M3.495 2.631l.105.07 1.708 1.28a2 2 0 0 1 .653.848l.06.171h12.846a2 2 0 0 1 1.998 2.1l-.013.148-.457 3.655a5 5 0 0 1-4.32 4.34l-.226.023-7.313.61.26 1.124H17.5a1 1 0 0 1 .117 1.993L17.5 19H8.796a2 2 0 0 1-1.906-1.393l-.043-.157-2.74-11.87L2.4 4.3a1 1 0 0 1 .985-1.723zM18.867 7H6.487l1.595 6.906 7.6-.633a3 3 0 0 0 2.728-2.617z"/></g></svg>
